build/images/ico/ig-light.svg

<?xml version="1.0" encoding="UTF-8"?>
<svg width="24px" height="24px" viewBox="0 0 24 24" version="1.1" xmlns="http://www.w3.org/2000/svg" xmlns:xlink="http://www.w3.org/1999/xlink">
    <title>IG@1x</title>
    <g id="1.-Design" stroke="none" stroke-width="1" fill="none" fill-rule="evenodd">
        <g id="HP-v.2.1-(schválená)" transform="translate(-1524, -3160)" fill="#01AEE2" fill-rule="nonzero">
            <g id="Partneři-+-patička" transform="translate(0, 2654)">
                <g id="patička" transform="translate(0, 415)">
                    <g id="instagram-2" transform="translate(1524, 91)">
                        <path d="M14.296875,12 C14.296875,13.2685547 13.2685547,14.296875 12,14.296875 C10.7314453,14.296875 9.703125,13.2685547 9.703125,12 C9.703125,10.7314453 10.7314453,9.703125 12,9.703125 C13.2685547,9.703125 14.296875,10.7314453 14.296875,12 Z" id="Path"></path>
                        <path d="M17.371582,7.93615725 C17.2611694,7.63696289 17.085022,7.36614989 16.8561401,7.14385987 C16.6338501,6.91497802 16.3632202,6.73883058 16.0638428,6.62841797 C15.8210449,6.53411864 15.4562988,6.421875 14.7844849,6.39129637 C14.0577393,6.3581543 13.8398438,6.35101317 12,6.35101317 C10.1599732,6.35101317 9.94207763,6.3579712 9.21551513,6.39111328 C8.54370117,6.421875 8.17877198,6.53411864 7.93615725,6.62841797 C7.6367798,6.73883058 7.3659668,6.91497802 7.14385988,7.14385987 C6.91497802,7.36614989 6.73883058,7.6367798 6.62823488,7.93615725 C6.53393555,8.17895508 6.42169191,8.54388427 6.39111328,9.21569822 C6.3579712,9.94226072 6.35083008,10.1601562 6.35083008,12.0001831 C6.35083008,13.8400268 6.3579712,14.0579224 6.39111328,14.784668 C6.42169191,15.4564819 6.53393555,15.821228 6.62823488,16.0640259 C6.73883058,16.3634033 6.91479492,16.6340332 7.14367678,16.8563232 C7.3659668,17.0852051 7.63659666,17.2613526 7.93597411,17.3717651 C8.17877198,17.4662475 8.54370117,17.5784912 9.21551513,17.6090698 C9.94207763,17.6422119 10.1597901,17.6491699 11.9998169,17.6491699 C13.8400268,17.6491699 14.0579224,17.6422119 14.7843018,17.6090698 C15.4561157,17.5784912 15.8210449,17.4662475 16.0638428,17.3717651 C16.6647949,17.1399536 17.1397705,16.664978 17.371582,16.0640259 C17.4658814,15.821228 17.578125,15.4564819 17.6088867,14.784668 C17.6420288,14.0579224 17.6489868,13.8400268 17.6489868,12.0001831 C17.6489868,10.1601562 17.6420288,9.94226072 17.6088867,9.21569822 C17.5783081,8.54388427 17.4660645,8.17895508 17.371582,7.93615725 L17.371582,7.93615725 Z M12,15.5383301 C10.0457153,15.5383301 8.46148683,13.9542847 8.46148683,12 C8.46148683,10.0457153 10.0457153,8.46166992 12,8.46166992 C13.9541016,8.46166992 15.5383301,10.0457153 15.5383301,12 C15.5383301,13.9542847 13.9541016,15.5383301 12,15.5383301 Z M15.6782227,9.14868164 C15.2215576,9.14868164 14.8513184,8.77844241 14.8513184,8.32177734 C14.8513184,7.86511228 15.2215576,7.49487305 15.6782227,7.49487305 C16.1348877,7.49487305 16.505127,7.86511228 16.505127,8.32177734 C16.5049439,8.77844241 16.1348877,9.14868164 15.6782227,9.14868164 Z" id="Shape"></path>
                        <path d="M12,0 C5.3735962,0 0,5.3735962 0,12 C0,18.6264038 5.3735962,24 12,24 C18.6264038,24 24,18.6264038 24,12 C24,5.3735962 18.6264038,0 12,0 Z M18.84906,14.8408814 C18.8157349,15.5744018 18.6990967,16.0751953 18.5288086,16.5135498 C18.1708374,17.4391479 17.4391479,18.1708374 16.5135498,18.5288086 C16.0753784,18.6990967 15.5744018,18.8155518 14.8410645,18.84906 C14.1062622,18.8825684 13.871521,18.890625 12.0001831,18.890625 C10.1286621,18.890625 9.89410402,18.8825684 9.15911864,18.84906 C8.42578125,18.8155518 7.92480469,18.6990967 7.48663331,18.5288086 C7.02667238,18.3557739 6.61029052,18.0845948 6.26605223,17.7339478 C5.91558839,17.3898926 5.64440916,16.9733276 5.4713745,16.5135498 C5.30108644,16.0753784 5.18444822,15.5744018 5.15112305,14.8410645 C5.11724855,14.1060791 5.109375,13.8713379 5.109375,12 C5.109375,10.1286621 5.11724855,9.89392088 5.15093995,9.15911864 C5.18426513,8.42559816 5.3007202,7.92480469 5.47100831,7.48645022 C5.64404297,7.02667238 5.91540525,6.61010742 6.26605223,6.26605223 C6.61010742,5.91540525 7.02667238,5.64422606 7.48645022,5.47119141 C7.92480469,5.30090334 8.42559816,5.18444822 9.15911864,5.15093995 C9.89392087,5.11743164 10.1286621,5.109375 12,5.109375 C13.8713379,5.109375 14.1060791,5.11743164 14.8408814,5.15112305 C15.5744018,5.18444822 16.0751953,5.30090334 16.5135498,5.47100831 C16.9733276,5.64404297 17.3898926,5.91540525 17.7341309,6.26605223 C18.0845947,6.61029052 18.355957,7.02667238 18.5288086,7.48645022 C18.6992798,7.92480469 18.8157349,8.42559816 18.8492432,9.15911864 C18.8827515,9.89392088 18.890625,10.1286621 18.890625,12 C18.890625,13.8713379 18.8827515,14.1060791 18.84906,14.8408814 L18.84906,14.8408814 Z" id="Shape"></path>
                    </g>
                </g>
            </g>
        </g>
    </g>
</svg>

<svg width="24" height="24" viewBox="0 0 24 24" xmlns="http://www.w3.org/2000/svg"><g fill="#01AEE2" fill-rule="nonzero"><path d="M14.297 12a2.297 2.297 0 11-4.594 0 2.297 2.297 0 014.594 0z"/><path d="M17.372 7.936c-.11-.299-.287-.57-.516-.792a2.133 2.133 0 00-.792-.516c-.243-.094-.608-.206-1.28-.237-.726-.033-.944-.04-2.784-.04-1.84 0-2.058.007-2.784.04-.672.03-1.037.143-1.28.237-.3.11-.57.287-.792.516a2.136 2.136 0 00-.516.792c-.094.243-.206.608-.237 1.28-.033.726-.04.944-.04 2.784 0 1.84.007 2.058.04 2.785.03.671.143 1.036.237 1.279.11.3.287.57.516.792.222.23.493.405.792.516.243.094.608.206 1.28.237.726.033.944.04 2.784.04 1.84 0 2.058-.007 2.784-.04.672-.03 1.037-.143 1.28-.237a2.282 2.282 0 001.308-1.308c.094-.243.206-.608.237-1.28.033-.726.04-.944.04-2.784 0-1.84-.007-2.058-.04-2.784-.03-.672-.143-1.037-.237-1.28zM12 15.538a3.538 3.538 0 110-7.076 3.538 3.538 0 010 7.076zm3.678-6.39a.827.827 0 110-1.653.827.827 0 010 1.654z"/><path d="M12 0C5.374 0 0 5.374 0 12s5.374 12 12 12 12-5.374 12-12S18.626 0 12 0zm6.85 14.84c-.034.734-.15 1.235-.321 1.674a3.523 3.523 0 01-2.015 2.015c-.439.17-.94.287-1.673.32-.735.034-.97.042-2.84.042-1.872 0-2.107-.008-2.842-.042-.733-.033-1.234-.15-1.672-.32a3.376 3.376 0 01-1.22-.795 3.377 3.377 0 01-.796-1.22c-.17-.439-.287-.94-.32-1.673-.034-.735-.042-.97-.042-2.841 0-1.871.008-2.106.042-2.84.033-.734.15-1.235.32-1.674.173-.46.444-.876.795-1.22.344-.35.76-.622 1.22-.795.439-.17.94-.287 1.673-.32.735-.034.97-.042 2.841-.042 1.871 0 2.106.008 2.84.042.734.033 1.235.15 1.674.32.46.173.876.444 1.22.795.35.344.622.76.795 1.22.17.439.287.94.32 1.673.034.735.042.97.042 2.841 0 1.871-.008 2.106-.042 2.84z"/></g></svg>
